lib/flags/m/KEN.svg

<svg xmlns="http://www.w3.org/2000/svg" fill="none" viewBox="0 0 20 15"><mask id="KEN_svg__a" width="20" height="15" x="0" y="0" mask-type="alpha" maskUnits="userSpaceOnUse"><path fill="#fff" d="M0 0H20V15H0z"/></mask><g mask="url(#KEN_svg__a)"><path fill="#272727" fill-rule="evenodd" d="M0 0V5H20V0H0Z" clip-rule="evenodd"/><path fill="#4E8B1D" fill-rule="evenodd" d="M0 10V15H20V10H0Z" clip-rule="evenodd"/><path fill="#E31D1C" stroke="#F7FCFF" stroke-width="1.25" d="M0 4.375H-0.625V5V10V10.625H0H20H20.625V10V5V4.375H20H0Z"/></g><path fill="#fff" d="M11.8117 2.41831C11.9259 2.17187 12.2329 1.90276 12.7327 1.61098C12.7498 1.60095 12.7706 1.60038 12.7882 1.60944C12.8181 1.62477 12.8305 1.6627 12.8158 1.69406L7.63701 12.871L7.36737 12.7325L11.9324 2.88017C11.7257 2.84473 11.6855 2.69077 11.8117 2.41831Z"/><path fill="#fff" d="M8.18277 2.41831C8.30901 2.69077 8.26877 2.84473 8.06205 2.88017L12.6271 12.7325L12.3575 12.871L7.17869 1.69406C7.16396 1.6627 7.17637 1.62477 7.20624 1.60944C7.22389 1.60038 7.24463 1.60095 7.26181 1.61098C7.76159 1.90276 8.06858 2.17187 8.18277 2.41831Z"/><path fill="#E31D1C" fill-rule="evenodd" d="M10 12.5684C10.598 12.5684 13 10.3063 13 7.51577C13 4.72527 10.598 2.46313 10 2.46313C9.40197 2.46313 7 4.72527 7 7.51577C7 10.3063 9.40197 12.5684 10 12.5684Z" clip-rule="evenodd"/><mask id="KEN_svg__b" width="6" height="11" x="7" y="2" mask-type="alpha" maskUnits="userSpaceOnUse"><path fill="#fff" fill-rule="evenodd" d="M10 12.5684C10.598 12.5684 13 10.3063 13 7.51577C13 4.72527 10.598 2.46313 10 2.46313C9.40197 2.46313 7 4.72527 7 7.51577C7 10.3063 9.40197 12.5684 10 12.5684Z" clip-rule="evenodd"/></mask><g mask="url(#KEN_svg__b)"><path fill="#272727" d="M4.29998 11.9368C6.61957 11.9368 8.49998 9.95746 8.49998 7.51578 8.49998 5.0741 6.61957 3.09473 4.29998 3.09473 1.98038 3.09473.0999756 5.0741.0999756 7.51578.0999756 9.95746 1.98038 11.9368 4.29998 11.9368zM15.7 11.9368C18.0196 11.9368 19.9 9.95746 19.9 7.51578 19.9 5.0741 18.0196 3.09473 15.7 3.09473 13.3804 3.09473 11.5 5.0741 11.5 7.51578 11.5 9.95746 13.3804 11.9368 15.7 11.9368z"/><path fill="#F7FCFF" fill-rule="evenodd" d="M10.12 6.84006C10.3939 6.63525 10.6 5.74319 10.6 4.67375C10.6 3.60432 10.3939 2.71226 10.12 2.50745V6.84006ZM9.82002 6.78308C9.5766 6.5014 9.40002 5.66355 9.40002 4.67375C9.40002 3.68396 9.5766 2.84611 9.82002 2.56443V6.78308ZM9.82002 8.24864V12.4673C9.5766 12.1856 9.40002 11.3478 9.40002 10.358C9.40002 9.36817 9.5766 8.53032 9.82002 8.24864ZM10.12 12.5243V8.19166C10.3939 8.39647 10.6 9.28853 10.6 10.358C10.6 11.4274 10.3939 12.3195 10.12 12.5243Z" clip-rule="evenodd"/><path fill="#F7FCFF" d="M10 6.88418C10.3314 6.88418 10.6 7.16695 10.6 7.51576C10.6 7.86457 10.3314 8.14734 10 8.14734C9.66865 8.14734 9.40002 7.86457 9.40002 7.51576C9.40002 7.16695 9.66865 6.88418 10 6.88418Z"/></g></svg>

<svg xmlns="http://www.w3.org/2000/svg" fill="none" viewBox="0 0 20 15"><mask id="KEN_svg__a" width="20" height="15" x="0" y="0" maskUnits="userSpaceOnUse"><path fill="#fff" d="M0 0h20v15H0z"/></mask><g mask="url(#KEN_svg__a)"><path fill="#272727" fill-rule="evenodd" d="M0 0v5h20V0H0z" clip-rule="evenodd"/><path fill="#4E8B1D" fill-rule="evenodd" d="M0 10v5h20v-5H0z" clip-rule="evenodd"/><path fill="#E31D1C" stroke="#F7FCFF" stroke-width="1.25" d="M0 4.375h-.625v6.25h21.25v-6.25H0z"/></g><path fill="#fff" d="M11.812 2.418c.114-.246.42-.515.92-.807a.058.058 0 01.056-.002c.03.016.043.054.028.085L7.637 12.871l-.27-.139 4.565-9.852c-.206-.035-.247-.19-.12-.462z"/><path fill="#fff" d="M8.183 2.418c.126.273.086.427-.121.462l4.565 9.853-.27.138L7.18 1.694a.065.065 0 01.027-.085.058.058 0 01.056.002c.5.292.807.56.92.807z"/><path fill="#E31D1C" fill-rule="evenodd" d="M10 12.568c.598 0 3-2.262 3-5.052 0-2.79-2.402-5.053-3-5.053-.598 0-3 2.262-3 5.053 0 2.79 2.402 5.052 3 5.052z" clip-rule="evenodd"/><mask id="KEN_svg__b" width="6" height="11" x="7" y="2" maskUnits="userSpaceOnUse"><path fill="#fff" fill-rule="evenodd" d="M10 12.568c.598 0 3-2.262 3-5.052 0-2.79-2.402-5.053-3-5.053-.598 0-3 2.262-3 5.053 0 2.79 2.402 5.052 3 5.052z" clip-rule="evenodd"/></mask><g mask="url(#KEN_svg__b)"><path fill="#272727" d="M4.3 11.937c2.32 0 4.2-1.98 4.2-4.421 0-2.442-1.88-4.421-4.2-4.421-2.32 0-4.2 1.98-4.2 4.42 0 2.442 1.88 4.422 4.2 4.422zm11.4 0c2.32 0 4.2-1.98 4.2-4.421 0-2.442-1.88-4.421-4.2-4.421-2.32 0-4.2 1.98-4.2 4.42 0 2.442 1.88 4.422 4.2 4.422z"/><path fill="#F7FCFF" fill-rule="evenodd" d="M10.12 6.84c.274-.205.48-1.097.48-2.166 0-1.07-.206-1.962-.48-2.167V6.84zm-.3-.057c-.243-.282-.42-1.12-.42-2.11 0-.99.177-1.827.42-2.109v4.219zm0 1.466v4.218c-.243-.282-.42-1.12-.42-2.11 0-.989.177-1.827.42-2.108zm.3 4.275V8.192c.274.204.48 1.096.48 2.166 0 1.07-.206 1.961-.48 2.166z" clip-rule="evenodd"/><path fill="#F7FCFF" d="M10 6.884c.331 0 .6.283.6.632 0 .349-.269.631-.6.631-.331 0-.6-.282-.6-.631 0-.349.269-.632.6-.632z"/></g></svg>
